X:80
T:Peeler and the Goat, The
R:slide
H:See also "The Recruiting Sergeant", #74
D:Angelina Carberry and Martin Quinn
Z:id:hn-slide-80
M:6/8
L:1/8
K:Ador
c3 BAG | A2B c2d | efe d2c | B2G GAB |
~c3 BAG | A2B c2d | efg fed |1 e2A A2B :|2 e2A A2a ||
|: g2f e2d | e2f g2a | g2e d2c | B2G GAB |
cBA BAG | A2B c2d | efg fed |1 e2A A2a :|2 e2A A2B ||

